X: 04012
T: CABOT'S JIG
C: Bob McQuillen 1 Oct'74
B: Bob's Note Book 04 #12
%R: jig
Z: 2020 John Chambers <jc:trillian.mit.edu>
M: 6/8
L: 1/8
K: Em
|:E>FE e2e | fed edB | GFE e2g | fed B2A |\
| E>FE e2g | fed e2f | gfg dBG | AFD E3 :|
|:G>FG AFD | BAG A2D | GFG AGA | Bed B2A |\
| Beg  fdf | gab aga | bab geB | ABd e3 :|
%%begintext align
%% This tune is dedicated with much
%% love and fondest Best Wishes always
%% to Mr. & Mrs. T. Handasyd Cabot of Dublin.
%%endtext

%%sep 1 1 500

%%sep 1 1 500

